font/glyphs/svg/heh+meem.init.svg

<?xml version="1.0" encoding="UTF-8" standalone="no"?>
<!-- Created with Inkscape (http://www.inkscape.org/) -->

<svg
   xmlns:dc="http://purl.org/dc/elements/1.1/"
   xmlns:cc="http://creativecommons.org/ns#"
   xmlns:rdf="http://www.w3.org/1999/02/22-rdf-syntax-ns#"
   xmlns:svg="http://www.w3.org/2000/svg"
   xmlns="http://www.w3.org/2000/svg"
   xmlns:sodipodi="http://sodipodi.sourceforge.net/DTD/sodipodi-0.dtd"
   xmlns:inkscape="http://www.inkscape.org/namespaces/inkscape"
   version="1.0"
   width="1000"
   height="1000"
   id="svg5496"
   sodipodi:version="0.32"
   inkscape:version="0.47pre0 r21549"
   sodipodi:docname="New document 1"
   inkscape:output_extension="org.inkscape.output.svg.inkscape">
  <metadata
     id="metadata5594">
    <rdf:RDF>
      <cc:Work
         rdf:about="">
        <dc:format>image/svg+xml</dc:format>
        <dc:type
           rdf:resource="http://purl.org/dc/dcmitype/StillImage" />
        <dc:title></dc:title>
      </cc:Work>
    </rdf:RDF>
  </metadata>
  <sodipodi:namedview
     inkscape:window-height="618"
     inkscape:pageshadow="2"
     inkscape:pageopacity="0.0"
     borderopacity="1.0"
     bordercolor="#666666"
     pagecolor="#ffffff"
     id="base"
     showgrid="false"
     showguides="true"
     inkscape:guide-bbox="true"
     inkscape:zoom="0.454"
     inkscape:cx="377.92063"
     inkscape:cy="461.21395"
     inkscape:window-x="0"
     inkscape:window-y="25"
     inkscape:current-layer="svg5496">
    <sodipodi:guide
       orientation="horizontal"
       position="200"
       id="guide5596" />
  </sodipodi:namedview>
  <defs
     id="defs5498">
    <inkscape:perspective
       sodipodi:type="inkscape:persp3d"
       inkscape:vp_x="0 : 500 : 1"
       inkscape:vp_y="0 : 1000 : 0"
       inkscape:vp_z="1000 : 500 : 1"
       inkscape:persp3d-origin="500 : 333.33333 : 1"
       id="perspective8" />
    <inkscape:perspective
       id="perspective2822"
       inkscape:persp3d-origin="0.5 : 0.33333333 : 1"
       inkscape:vp_z="1 : 0.5 : 1"
       inkscape:vp_y="0 : 1000 : 0"
       inkscape:vp_x="0 : 0.5 : 1"
       sodipodi:type="inkscape:persp3d" />
    <inkscape:perspective
       sodipodi:type="inkscape:persp3d"
       inkscape:vp_x="0 : 0.5 : 1"
       inkscape:vp_y="0 : 1000 : 0"
       inkscape:vp_z="1 : 0.5 : 1"
       inkscape:persp3d-origin="0.5 : 0.33333333 : 1"
       id="perspective2838" />
    <inkscape:perspective
       id="perspective2849"
       inkscape:persp3d-origin="500 : 333.33333 : 1"
       inkscape:vp_z="1000 : 500 : 1"
       inkscape:vp_y="0 : 1000 : 0"
       inkscape:vp_x="0 : 500 : 1"
       sodipodi:type="inkscape:persp3d" />
  </defs>
  <g
     id="layer1"
     transform="translate(-164.09692,10.112059)" />
  <path
     style="color:#000000;fill:none;stroke:#000000;stroke-width:1px;stroke-linecap:butt;stroke-linejoin:miter;stroke-miterlimit:4;stroke-opacity:1;stroke-dasharray:none;stroke-dashoffset:0;marker:none;visibility:visible;display:inline;overflow:visible;enable-background:accumulate"
     d="m 409.03566,209.8125 c -1.40899,0.0434 -2.59678,0.24138 -3.5625,0.5625 -16.29037,5.41685 -37.56629,49.57914 -44.4375,81 -1.66083,7.59469 0.83992,11.8344 9.9375,13.0625 13.1978,1.7816 26.11338,4.56542 37.8125,14.875 -38.25238,25.95416 -114.58873,163.86422 -61.53125,190.25 12.89617,6.41333 19.06181,10.01885 26.53624,13.14187 -24.83158,19.42719 -58.34055,32.3124 -144.16124,26.51438 -47.75269,-3.22616 -82.99685,21.6423 -106.375,52.09375 -22.81314,29.71549 -34.271645,65.45977 -44.093755,85.28125 -10.40127,20.99023 -53.2279,33.5986 -79.15624971,36.0625 L -1.0268447,800 C 51.959165,792.5776 84.341205,709.91129 101.31691,716.0625 c 32.85345,11.90457 91.56357,40.44538 123.125,46.40625 9.39948,1.77524 23.21184,-2.462 31.40625,-7.78125 27.69814,-17.97978 59.72281,-79.8966 36.9375,-139.09375 -1.37842,-3.58119 0.17521,-6.38076 3.1875,-7.46875 54.18404,-19.57051 95.39979,-35.11707 135.21875,-70.21875 54.24416,11.38495 128.46494,22.88514 166.65625,23.21875 7.02272,0.0614 13.58621,-1.7587 19.25,-6.78125 13.5189,-11.98834 45.18715,-49.4364 46.9375,-92.25 C 666.74572,397.01176 617.24994,333.57831 558.94191,287 499.27461,239.33586 430.17052,209.16209 409.03566,209.8125 z m 37.81701,148.48075 c 11.44383,11.71483 30.41631,40.58899 38.81972,56.1974 3.31138,6.15053 1.31041,12.33211 -2.77405,18.00075 -5.29644,7.35071 -16.81449,17.39505 -30.30018,29.0086 -40.63941,-7.84314 -74.80104,-14.87033 -87.4375,-28.625 -4.99492,-5.43692 -7.39467,-15.56445 -4.75,-21.875 8.61773,-20.56314 49.14562,-49.83825 67.87043,-56.74018 6.6219,-2.44082 13.80984,-0.84107 18.57158,4.03343 z M 626.16066,469.625 c 3.61399,4.634 8.62828,12.6865 0.15625,14.375 -20.53658,4.09298 -80.6562,-4.82962 -137.09375,-15.4375 19.78169,-36.24737 21.04048,-72.73541 17.375,-103.5625 33.91707,18.44978 88.60066,64.92456 119.5625,104.625 z"
     id="path2932"
     sodipodi:nodetypes="cssscscsssccssssscsscsccsscsssscsccs" />
  <path
     style="color:#000000;fill:none;stroke:#000000;stroke-width:1px;stroke-linecap:butt;stroke-linejoin:miter;stroke-miterlimit:4;stroke-opacity:1;stroke-dasharray:none;stroke-dashoffset:0;marker:none;visibility:visible;display:inline;overflow:visible;enable-background:accumulate"
     d="m 133.0253,632.63837 c 21.9638,27.22637 87.19988,48.72252 119.35559,53.7408 6.16556,0.96221 8.62198,-2.98522 7.75221,-8.36491 -5.8896,-36.42855 -86.72229,-81.84695 -120.57621,-65.45839 -7.28715,3.52767 -11.49342,13.93181 -6.53159,20.0825 z"
     id="path2934"
     sodipodi:nodetypes="cssss" />
</svg>

<?xml version="1.0" encoding="UTF-8" standalone="no"?>
<!-- Created with Inkscape (http://www.inkscape.org/) -->

<svg
   xmlns:dc="http://purl.org/dc/elements/1.1/"
   xmlns:cc="http://creativecommons.org/ns#"
   xmlns:rdf="http://www.w3.org/1999/02/22-rdf-syntax-ns#"
   xmlns:svg="http://www.w3.org/2000/svg"
   xmlns="http://www.w3.org/2000/svg"
   xmlns:sodipodi="http://sodipodi.sourceforge.net/DTD/sodipodi-0.dtd"
   xmlns:inkscape="http://www.inkscape.org/namespaces/inkscape"
   version="1.0"
   width="1000"
   height="1000"
   id="svg5496"
   sodipodi:version="0.32"
   inkscape:version="0.47pre0 r21549"
   sodipodi:docname="heh+meem.init.svg"
   inkscape:output_extension="org.inkscape.output.svg.inkscape">
  <metadata
     id="metadata5594">
    <rdf:RDF>
      <cc:Work
         rdf:about="">
        <dc:format>image/svg+xml</dc:format>
        <dc:type
           rdf:resource="http://purl.org/dc/dcmitype/StillImage" />
        <dc:title />
      </cc:Work>
    </rdf:RDF>
  </metadata>
  <sodipodi:namedview
     inkscape:window-height="618"
     inkscape:pageshadow="2"
     inkscape:pageopacity="0.0"
     borderopacity="1.0"
     bordercolor="#666666"
     pagecolor="#ffffff"
     id="base"
     showgrid="false"
     showguides="true"
     inkscape:guide-bbox="true"
     inkscape:zoom="0.236"
     inkscape:cx="500"
     inkscape:cy="500"
     inkscape:window-x="0"
     inkscape:window-y="25"
     inkscape:current-layer="svg5496">
    <sodipodi:guide
       orientation="horizontal"
       position="200"
       id="guide5596" />
  </sodipodi:namedview>
  <defs
     id="defs5498">
    <inkscape:perspective
       sodipodi:type="inkscape:persp3d"
       inkscape:vp_x="0 : 500 : 1"
       inkscape:vp_y="0 : 1000 : 0"
       inkscape:vp_z="1000 : 500 : 1"
       inkscape:persp3d-origin="500 : 333.33333 : 1"
       id="perspective8" />
    <inkscape:perspective
       id="perspective2822"
       inkscape:persp3d-origin="0.5 : 0.33333333 : 1"
       inkscape:vp_z="1 : 0.5 : 1"
       inkscape:vp_y="0 : 1000 : 0"
       inkscape:vp_x="0 : 0.5 : 1"
       sodipodi:type="inkscape:persp3d" />
    <inkscape:perspective
       sodipodi:type="inkscape:persp3d"
       inkscape:vp_x="0 : 0.5 : 1"
       inkscape:vp_y="0 : 1000 : 0"
       inkscape:vp_z="1 : 0.5 : 1"
       inkscape:persp3d-origin="0.5 : 0.33333333 : 1"
       id="perspective2838" />
    <inkscape:perspective
       id="perspective2849"
       inkscape:persp3d-origin="500 : 333.33333 : 1"
       inkscape:vp_z="1000 : 500 : 1"
       inkscape:vp_y="0 : 1000 : 0"
       inkscape:vp_x="0 : 500 : 1"
       sodipodi:type="inkscape:persp3d" />
  </defs>
  <path
     style="color:#000000;fill:#000000;stroke:#000000;stroke-width:1px;stroke-linecap:butt;stroke-linejoin:miter;stroke-miterlimit:4;stroke-opacity:1;stroke-dasharray:none;stroke-dashoffset:0;marker:none;visibility:visible;display:inline;overflow:visible;enable-background:accumulate"
     d="M 409.03125 209.8125 C 407.62226 209.8559 406.43447 210.05388 405.46875 210.375 C 389.17838 215.79185 367.90246 259.95414 361.03125 291.375 C 359.37042 298.96969 361.87117 303.2094 370.96875 304.4375 C 384.16655 306.2191 397.08213 309.00292 408.78125 319.3125 C 370.52887 345.26666 294.19252 483.17672 347.25 509.5625 C 360.14617 515.97583 366.30682 519.59573 373.78125 522.71875 C 348.94967 542.14594 315.44569 555.01677 229.625 549.21875 C 181.87231 545.99259 146.62815 570.86105 123.25 601.3125 C 100.43686 631.02799 88.97836 666.77227 79.15625 686.59375 C 68.75498 707.58398 25.92835 720.19235 0 722.65625 L -1.03125 800 C 51.95476 792.5776 84.336795 709.91129 101.3125 716.0625 C 134.16595 727.96707 192.87607 756.50788 224.4375 762.46875 C 233.83698 764.24399 247.64934 760.00675 255.84375 754.6875 C 283.54189 736.70772 315.56656 674.7909 292.78125 615.59375 C 291.40283 612.01256 292.95646 609.21299 295.96875 608.125 C 350.15279 588.55449 391.36854 573.00793 431.1875 537.90625 C 485.43166 549.2912 559.65244 560.79139 597.84375 561.125 C 604.86647 561.1864 611.42996 559.3663 617.09375 554.34375 C 630.61265 542.35541 662.2809 504.90735 664.03125 462.09375 C 666.74131 397.01176 617.24553 333.57831 558.9375 287 C 499.2702 239.33586 430.16611 209.16209 409.03125 209.8125 z M 434.5625 353.125 C 439.15738 353.1317 443.57005 354.93003 446.84375 358.28125 C 458.28758 369.99608 477.28409 398.89159 485.6875 414.5 C 488.99888 420.65053 486.99071 426.83136 482.90625 432.5 C 477.60981 439.85071 466.07944 449.88645 452.59375 461.5 C 411.95434 453.65686 377.79271 446.62967 365.15625 432.875 C 360.16133 427.43808 357.76158 417.31055 360.40625 411 C 369.02398 390.43686 409.55644 361.15193 428.28125 354.25 C 430.35059 353.48724 432.47392 353.12195 434.5625 353.125 z M 506.59375 365 C 540.51082 383.44978 595.19441 429.92456 626.15625 469.625 C 629.77024 474.259 634.78453 482.3115 626.3125 484 C 605.77592 488.09298 545.6563 479.17038 489.21875 468.5625 C 509.00044 432.31513 510.25923 395.82709 506.59375 365 z M 156.28125 609.125 C 194.6572 608.77662 255.06363 646.69421 260.125 678 C 260.99477 683.37969 258.54056 687.33721 252.375 686.375 C 220.21929 681.35672 154.99505 659.85137 133.03125 632.625 C 128.06942 626.47431 132.27535 616.09017 139.5625 612.5625 C 144.32321 610.25786 150.00155 609.18201 156.28125 609.125 z "
     id="path2932" />
</svg>
